assests/images/1.svg

<svg xmlns="http://www.w3.org/2000/svg" xmlns:xlink="http://www.w3.org/1999/xlink" width="1024" zoomAndPan="magnify" viewBox="0 0 768 767.999994" height="1024" preserveAspectRatio="xMidYMid meet" version="1.0"><defs><clipPath id="d1c2492a2a"><path d="M 158.835938 153.601562 L 593.644531 153.601562 L 593.644531 614.101562 L 158.835938 614.101562 Z M 158.835938 153.601562 " clip-rule="nonzero"/></clipPath><clipPath id="fbfe560522"><path d="M 435 402 L 609.050781 402 L 609.050781 433.949219 L 435 433.949219 Z M 435 402 " clip-rule="nonzero"/></clipPath></defs><g clip-path="url(#d1c2492a2a)"><path fill="#100f0d" d="M 353.128906 614.152344 C 342.476562 614.152344 332.773438 613.597656 324.648438 612.519531 C 309.96875 610.558594 297.78125 607.445312 287.023438 604.695312 C 273.050781 601.121094 260.980469 598.035156 248.636719 598.984375 C 221.75 601.042969 173.074219 595.082031 161.238281 559.582031 C 154.90625 540.597656 162.773438 518.347656 165.734375 509.96875 C 166.003906 509.222656 166.238281 508.546875 166.394531 508.074219 L 166.394531 496.601562 C 166.394531 475.34375 185.011719 397.890625 219.511719 350.699219 C 242.554688 319.183594 273.449219 278.375 289.78125 262.960938 C 311.511719 242.445312 341.265625 214.355469 349.226562 203.183594 C 363.464844 183.21875 412.183594 154.5 433.304688 153.621094 C 459.472656 152.519531 489.164062 197.558594 492.460938 202.695312 C 498.699219 212.421875 490.960938 219.832031 486.5625 223.683594 C 495.816406 226.296875 497.460938 232.832031 497.734375 235.691406 C 498.347656 242.257812 494.113281 249.394531 488.292969 251.609375 C 485.289062 252.753906 481.828125 253.652344 477.820312 254.695312 C 470.054688 256.71875 460.394531 259.234375 450.933594 264.648438 C 427.75 277.917969 407.5 277.15625 391.21875 276.542969 C 388.082031 276.425781 385.128906 276.328125 382.378906 276.320312 C 378.125 276.328125 373.421875 276.667969 370.847656 279.09375 C 353.511719 295.453125 345.929688 319.433594 338.609375 342.625 C 337.097656 347.40625 335.535156 352.347656 333.933594 357.058594 C 327.335938 376.417969 316.496094 413.195312 315.441406 448.246094 C 319.238281 446.070312 324.285156 442.710938 325.433594 441.675781 C 342.320312 426.375 377.480469 416.972656 395.253906 416.972656 C 433.007812 416.972656 452.113281 432.320312 464.75 442.476562 C 468.796875 445.730469 472.292969 448.539062 474.960938 449.503906 C 477.054688 450.257812 478.140625 452.5625 477.378906 454.652344 C 476.628906 456.746094 474.3125 457.828125 472.226562 457.070312 C 468.292969 455.648438 464.503906 452.605469 459.707031 448.75 C 447.949219 439.300781 430.179688 425.023438 395.253906 425.023438 C 377.007812 425.023438 344.894531 434.90625 330.839844 447.636719 C 329.585938 448.773438 325.589844 451.519531 321.933594 453.753906 C 314.339844 458.394531 311.984375 458.730469 309.839844 457.722656 C 308.261719 456.984375 307.28125 455.386719 307.304688 453.632812 C 307.316406 415.859375 319.21875 375.285156 326.308594 354.457031 C 327.882812 349.839844 329.359375 345.15625 330.929688 340.199219 C 338.566406 316.027344 346.460938 291.035156 365.320312 273.242188 C 369.941406 268.886719 376.523438 268.285156 382.359375 268.273438 C 385.253906 268.253906 388.304688 268.378906 391.523438 268.5 C 406.777344 269.074219 425.75 269.792969 446.933594 257.667969 C 457.324219 251.714844 467.566406 249.046875 475.789062 246.90625 C 479.570312 245.925781 482.835938 245.078125 485.429688 244.085938 C 487.617188 243.253906 490.019531 239.660156 489.714844 236.445312 C 489.453125 233.644531 487.0625 231.816406 482.605469 231.023438 C 481.074219 230.75 476.996094 230.023438 476.027344 226.515625 C 475.0625 223.011719 477.792969 220.636719 480.683594 218.128906 C 486.164062 213.367188 488.074219 210.773438 485.683594 207.039062 C 475.402344 191.023438 451.277344 160.914062 433.636719 161.660156 C 414.605469 162.457031 368.765625 189.65625 355.785156 207.859375 C 348.011719 218.761719 322.746094 242.914062 295.308594 268.808594 C 282.738281 280.679688 258.769531 310.640625 226.011719 355.449219 C 192.175781 401.726562 174.449219 478.453125 174.449219 496.601562 L 174.449219 508.675781 C 174.449219 509.039062 174.402344 509.398438 174.308594 509.746094 C 174.117188 510.421875 173.789062 511.355469 173.328125 512.652344 C 170.617188 520.320312 163.417969 540.675781 168.875 557.035156 C 179.144531 587.828125 223.457031 592.855469 248.015625 590.960938 C 261.683594 589.910156 274.355469 593.148438 289.023438 596.898438 C 299.558594 599.59375 311.503906 602.648438 325.710938 604.539062 C 358.386719 608.898438 417.371094 604.433594 459.507812 589.421875 C 478.617188 582.613281 494.824219 573.488281 494.988281 573.394531 C 495.894531 572.878906 496.972656 572.738281 497.992188 573.003906 C 498.148438 573.042969 513.910156 577.117188 529.152344 577.835938 C 550.230469 578.835938 571.214844 571.191406 586.710938 556.871094 C 588.339844 555.363281 590.886719 555.460938 592.398438 557.09375 C 593.90625 558.726562 593.808594 561.273438 592.171875 562.78125 C 575.105469 578.554688 552.007812 586.953125 528.769531 585.878906 C 515.386719 585.246094 502.042969 582.269531 497.535156 581.183594 C 493.089844 583.605469 478.898438 591.054688 462.207031 597.003906 C 429.382812 608.695312 386.570312 614.152344 353.128906 614.152344 " fill-opacity="1" fill-rule="nonzero"/></g><g clip-path="url(#fbfe560522)"><path fill="#100f0d" d="M 439.308594 433.484375 C 437.96875 433.484375 436.65625 432.820312 435.890625 431.597656 C 434.714844 429.71875 435.285156 427.234375 437.171875 426.054688 C 487.910156 394.285156 556.214844 394.085938 607.144531 425.558594 C 609.03125 426.726562 609.617188 429.203125 608.449219 431.09375 C 607.28125 432.988281 604.800781 433.570312 602.910156 432.40625 C 554.535156 402.507812 489.644531 402.695312 441.445312 432.871094 C 440.777344 433.289062 440.039062 433.484375 439.308594 433.484375 " fill-opacity="1" fill-rule="nonzero"/></g><path fill="#100f0d" d="M 398.191406 569.023438 C 383.382812 569.023438 370.484375 566.597656 363.28125 563.679688 C 361.222656 562.84375 360.226562 560.496094 361.066406 558.4375 C 361.898438 556.378906 364.246094 555.390625 366.308594 556.222656 C 384.617188 563.636719 441.445312 567.261719 466.972656 531.804688 C 468.269531 529.996094 470.785156 529.589844 472.59375 530.886719 C 474.394531 532.183594 474.804688 534.695312 473.511719 536.503906 C 457.683594 558.480469 432.570312 565.789062 414.285156 568.046875 C 408.796875 568.730469 403.375 569.023438 398.191406 569.023438 " fill-opacity="1" fill-rule="nonzero"/><path fill="#100f0d" d="M 212.921875 438.824219 C 212.601562 438.824219 212.277344 438.789062 211.949219 438.707031 C 209.792969 438.175781 208.476562 435.996094 209.011719 433.835938 C 214.976562 409.664062 224.347656 393.210938 244.832031 370.953125 C 246.335938 369.3125 248.882812 369.207031 250.519531 370.710938 C 252.160156 372.214844 252.261719 374.761719 250.757812 376.398438 C 231.0625 397.808594 222.5 412.789062 216.828125 435.765625 C 216.371094 437.597656 214.730469 438.824219 212.921875 438.824219 " fill-opacity="1" fill-rule="nonzero"/><path fill="#100f0d" d="M 462.453125 232.339844 C 458.804688 232.34375 454.949219 232.066406 450.894531 231.515625 C 446.199219 230.875 440.835938 229.746094 436.664062 226.183594 C 432.097656 222.285156 429.601562 214.863281 433.328125 209.195312 L 433.796875 208.476562 C 435.882812 205.253906 439.375 199.867188 445.144531 200.726562 C 446.917969 200.992188 448.65625 201.664062 450.496094 202.378906 C 452.902344 203.308594 455.402344 204.265625 457.679688 204.175781 C 459.871094 204.097656 461.773438 205.808594 461.867188 208.027344 C 461.957031 210.246094 460.230469 212.125 458.015625 212.21875 C 454.078125 212.386719 450.472656 210.996094 447.59375 209.886719 C 446.175781 209.335938 444.839844 208.824219 443.949219 208.6875 C 443.109375 208.902344 441.324219 211.667969 440.558594 212.847656 L 440.058594 213.613281 C 438.886719 215.402344 440.054688 218.496094 441.890625 220.0625 C 444.480469 222.273438 448.449219 223.058594 451.980469 223.542969 C 462.398438 224.957031 471.527344 224.328125 478.386719 221.722656 C 480.460938 220.929688 482.789062 221.972656 483.582031 224.050781 C 484.371094 226.128906 483.324219 228.449219 481.246094 229.242188 C 475.820312 231.304688 469.527344 232.339844 462.453125 232.339844 " fill-opacity="1" fill-rule="nonzero"/><path fill="#100f0d" d="M 444.546875 208.734375 C 442.886719 208.734375 441.328125 207.695312 440.746094 206.039062 C 440.472656 205.257812 440.136719 204.351562 439.777344 203.371094 C 438.347656 199.496094 436.558594 194.664062 436.105469 191.183594 C 435.820312 188.980469 437.371094 186.960938 439.578125 186.671875 C 441.785156 186.375 443.804688 187.941406 444.089844 190.140625 C 444.425781 192.730469 446.105469 197.269531 447.332031 200.585938 C 447.707031 201.613281 448.058594 202.5625 448.347656 203.378906 C 449.082031 205.472656 447.976562 207.769531 445.878906 208.507812 C 445.4375 208.660156 444.988281 208.734375 444.546875 208.734375 " fill-opacity="1" fill-rule="nonzero"/></svg>

<svg xmlns="http://www.w3.org/2000/svg" width="1024" viewBox="0 0 768 768" height="1024" version="1.0"><defs><clipPath id="a"><path d="M158.836 153.602h434.809v460.5h-434.81Zm0 0"/></clipPath><clipPath id="b"><path d="M435 402h174.05v31.95H435Zm0 0"/></clipPath></defs><g clip-path="url(#a)"><path fill="#100f0d" d="M353.129 614.152c-10.652 0-20.356-.554-28.48-1.632-14.68-1.961-26.868-5.075-37.626-7.825-13.972-3.574-26.043-6.66-38.386-5.71-26.887 2.058-75.563-3.903-87.399-39.403-6.332-18.984 1.535-41.234 4.496-49.613.27-.746.504-1.422.66-1.895v-11.472c0-21.258 18.618-98.711 53.118-145.903 23.043-31.515 53.937-72.324 70.27-87.738 21.73-20.516 51.484-48.606 59.445-59.777 14.238-19.965 62.957-48.684 84.078-49.563 26.168-1.101 55.86 43.938 59.156 49.074 6.238 9.727-1.5 17.137-5.899 20.989 9.254 2.613 10.899 9.148 11.172 12.007.614 6.567-3.62 13.704-9.441 15.918-3.004 1.145-6.465 2.043-10.473 3.086-7.765 2.024-17.425 4.54-26.886 9.953-23.184 13.27-43.434 12.508-59.715 11.895-3.137-.117-6.09-.215-8.84-.223-4.254.008-8.957.348-11.531 2.774-17.336 16.36-24.918 40.34-32.239 63.531-1.511 4.781-3.074 9.723-4.675 14.434-6.598 19.359-17.438 56.136-18.493 91.187 3.797-2.176 8.844-5.535 9.993-6.57 16.886-15.301 52.046-24.703 69.82-24.703 37.754 0 56.86 15.347 69.496 25.504 4.047 3.253 7.543 6.062 10.21 7.027a4.012 4.012 0 0 1 2.419 5.148 4.02 4.02 0 0 1-5.152 2.418c-3.934-1.422-7.723-4.465-12.52-8.32-11.758-9.45-29.527-23.727-64.453-23.727-18.246 0-50.36 9.883-64.414 22.614-1.254 1.136-5.25 3.883-8.906 6.117-7.594 4.64-9.95 4.976-12.094 3.969-1.578-.739-2.559-2.336-2.535-4.09.011-37.774 11.914-78.348 19.004-99.176 1.574-4.617 3.05-9.3 4.62-14.258 7.637-24.172 15.532-49.164 34.391-66.957 4.621-4.355 11.203-4.957 17.04-4.969 2.894-.02 5.945.106 9.163.227 15.254.574 34.227 1.293 55.41-10.832 10.391-5.953 20.633-8.621 28.856-10.762 3.781-.98 7.047-1.828 9.64-2.82 2.188-.832 4.59-4.426 4.286-7.64-.262-2.801-2.652-4.63-7.11-5.423-1.53-.273-5.609-1-6.578-4.507-.964-3.504 1.766-5.88 4.657-8.387 5.48-4.762 7.39-7.356 5-11.09-10.282-16.016-34.407-46.125-52.047-45.379-19.032.797-64.871 27.996-77.852 46.2-7.773 10.902-33.039 35.054-60.476 60.949-12.57 11.87-36.54 41.832-69.297 86.64-33.836 46.278-51.563 123.004-51.563 141.153v12.074c0 .363-.047.722-.14 1.07-.192.676-.52 1.61-.98 2.906-2.712 7.668-9.911 28.024-4.454 44.383 10.27 30.793 54.582 35.82 79.14 33.926 13.669-1.05 26.34 2.187 41.008 5.937 10.536 2.696 22.48 5.75 36.688 7.641 32.676 4.36 91.66-.105 133.797-15.117 19.11-6.809 35.316-15.934 35.48-16.027a4.023 4.023 0 0 1 3.004-.391c.156.039 15.918 4.113 31.16 4.832 21.078 1 42.063-6.645 57.559-20.965a4.025 4.025 0 0 1 5.687.223 4.022 4.022 0 0 1-.226 5.687c-17.067 15.774-40.164 24.172-63.402 23.098-13.383-.633-26.727-3.61-31.235-4.695-4.445 2.421-18.637 9.87-35.328 15.82-32.824 11.691-75.637 17.148-109.078 17.148"/></g><g clip-path="url(#b)"><path fill="#100f0d" d="M439.309 433.484a4.021 4.021 0 0 1-3.418-1.886 4.023 4.023 0 0 1 1.28-5.543c50.74-31.77 119.044-31.97 169.974-.496a4.026 4.026 0 0 1-4.234 6.848c-48.376-29.9-113.266-29.712-161.466.464a4.009 4.009 0 0 1-2.136.613"/></g><path fill="#100f0d" d="M398.191 569.023c-14.808 0-27.707-2.425-34.91-5.343a4.025 4.025 0 0 1 3.027-7.457c18.31 7.414 75.137 11.039 100.665-24.418a4.026 4.026 0 1 1 6.539 4.699c-15.828 21.976-40.942 29.285-59.227 31.543-5.488.683-10.91.976-16.094.976M212.922 438.824a4.018 4.018 0 0 1-3.91-4.988c5.965-24.172 15.336-40.625 35.82-62.883a4.022 4.022 0 0 1 5.688-.242 4.022 4.022 0 0 1 .238 5.687c-19.696 21.41-28.258 36.391-33.93 59.368a4.032 4.032 0 0 1-3.906 3.058M462.453 232.34c-3.648.004-7.504-.274-11.558-.824-4.696-.641-10.06-1.77-14.23-5.332-4.567-3.899-7.063-11.32-3.337-16.989l.469-.718c2.086-3.223 5.578-8.61 11.348-7.75 1.773.265 3.511.937 5.351 1.652 2.406.93 4.906 1.887 7.184 1.797 2.191-.078 4.093 1.633 4.187 3.851a4.033 4.033 0 0 1-3.851 4.192c-3.938.168-7.543-1.223-10.422-2.332-1.418-.551-2.754-1.063-3.645-1.2-.84.215-2.625 2.981-3.39 4.16l-.5.766c-1.172 1.79-.004 4.883 1.832 6.45 2.59 2.21 6.558 2.996 10.09 3.48 10.417 1.414 19.546.785 26.406-1.82a4.026 4.026 0 0 1 5.195 2.328 4.027 4.027 0 0 1-2.336 5.191c-5.426 2.063-11.719 3.098-18.793 3.098"/><path fill="#100f0d" d="M444.547 208.734a4.035 4.035 0 0 1-3.8-2.695c-.274-.781-.61-1.687-.97-2.668-1.43-3.875-3.218-8.707-3.672-12.187a4.028 4.028 0 0 1 3.473-4.512 4.018 4.018 0 0 1 4.512 3.469c.336 2.59 2.015 7.129 3.242 10.445.375 1.027.727 1.976 1.016 2.793a4.029 4.029 0 0 1-3.801 5.355"/></svg>
